X:140
T:Perhaps - Parker - Nikora
C:
N:TablEdited by Jim Nikora
L:1/8
Q:1/4=140
M:4/4
K:C
"C7"G2 EF GA Bc | zG2A BA EF | GA GE FG ED | z4 zc zA | "F7"c3E FG FE | ^DG AB z3A | 
"C7"G3^G ze2d | "Em7"BG E_B "A7"z3^G | "Dm7"A3c ed cA | "G7"^GF =GF z3G | "C7"E3G F3A | 
"Dm7"GD/C/ B,C "G7"DC B,C | 


